X:477
T:Reel 477
M:4/4
K:Amaj
L:1/8
CD|EA,CA, G,A,B,G,|E,A,CE D2B,D|EA,CA, B,G,E,G,|A,CB,G, A,2CD|EA,CA, B,G,E,G,|EA,CE D2CD|EA,B,A, CA,B,G,|EDB,G, A,2|FG|A2GA B2AG|AGBA GEEG|A2GA B2AF|=G2GE F2EG|A2AF G2GE|AGBA GEEG|=GFEB FDEC|DCB,C D2|
